X: 89
T:Lydian (fa) Scales
L:1/4
M:10/4
K:DbLyd
"^D flat"  D2 EF GA Bc d2|d2 cB AG FE D2||
M:10/4
K:AbLyd
"^A flat"  A2 Bc de fg a2|a2 gf ed cB A2||
M:10/4
K:EbLyd
"^E flat"  E2 FG AB cd e2|e2 dc BA GF E2||
M:10/4
K:BbLyd
"^B flat"  B2 cd ef ga b2|b2 ag fe dc B2||
M:10/4
K:FLyd
"^F"       F2 GA Bc de f2|f2 ed cB AG F2||
M:10/4
K:CLyd
"^C"       C2 DE FG AB c2|c2 BA GF ED C2||
M:10/4
K:GLyd
"^G"       G2 AB cd ef g2|g2 fe dc BA G2||
M:10/4
K:DLyd
"^D"       D2 EF GA Bc d2|d2 cB AG FE D2||
M:10/4
K:ALyd
"^A"       A2 Bc de fg a2|a2 gf ed cB A2|]


8. Summary of the Heptatonic Modes
== ===============================

It may help to hear all these modes together, sharing a common tonal
centre.  Listen for which note changes on each line.

